X: 10536
T: Dooncastle, The
R: hornpipe
M: 4/4
K: Dmajor
ad (3ded edBA|dA (3BdB AFAB|defd (3efe de|f2afe2fg|
ad (3ded edBA|dA (3BdB AFAB|defd (3efe dB|Adfed2z2:|
faa2 fabf|abaf efde|fa (3afa faba|fedfe2de|
faa2 fabf|abaf efdf|(3aba fd efdB|Adfed2z2:|

